X: 1
T: Johnnie McIljohn's
M: 4/4
L: 1/8
R: reel
K: Gmaj
|dB|: ~G3F GBdB|~G3B AGED|
|1 ~G3F GABd|eBdB  AcBA:|2 ~G3F GA B/c/d|eBdB A3B||
|GB~B2 GBdB|GB~B2 A2BA|
|1 GB~B2 GABd|eBdB AcBA:|2 ~G3F GA B/c/d|eBdB A3B||
